X:1
T:Title
%%score { 1 | ( 2 3 ) }
L:1/8
M:6/4
K:Eb
V:1 treble nm="Grand Piano"
V:2 bass 
V:3 bass 
V:1
 z6 z4[Q:1/4=105] EF | G3 _G =G2 E4 G[FA] | [GB]3 [_G=A] [=GB]2 [EG]4 [GB][GB] | %3
 [_Gc]2 [Gd]2 [Ge]2 [=GB] G3 E2 | [DF]6- [DF]2 z2 FG | A3 G A2 F4 GA | %6
 [GB]3 [_G=A] [=GB]2 [EG]4 [FB][FB] | [Ee]2 [EG]2 [Ec]2 [EB] [EG]3 [DF]2 |[M:5/4] E2- E6 z2 | %9
[M:1/4] E2 |[M:6/4] [CE]2 [CA]2 [Ec]2 [Ed]4 [Ec]2 | c4 B2 G4 B2 | %12
 [DB]2 [A,DF]2 [B,EG]2 .[DFA]4 [DAc]2 | [Ac]4 [GB]2 G4 E2 | E2 A2 c2 d4 [D_Gc]2 | %15
 [DGc]4 [DAB]2 [EG]4 [B,FB]2 | [Ee]2 [EG]2 [Ec]2 [EB] [EG]3 [DF]2 |[M:5/4] [G,E]2- [G,E]6 z2 |] %18
V:2
 z6 z4 [E,G,B,][E,A,B,] | [E,B,E]3 [E,CE] [E,B,E]2 [E,G,B,]4 [E,B,E][E,B,] | %2
 [E,E]3 [E,C] [E,E]2 [E,B,]4 [E,B,][E,B,] | [E,=A,]2 [E,A,]2 [E,A,]2 [E,B,] [E,B,E]3 [C,A,]2 | %4
 [B,,B,]6- [B,,B,]2 z2 [A,B,D][G,B,=E] | [F,CF]3 [F,C=E] [F,CF]2 [A,B,D]4 [G,B,E][F,B,F] | %6
 [E,E]3 [E,C] [E,E]2 [E,B,]4 [D,B,][D,F,] | [C,G,]2 [C,G,]2 [A,,A,]2 [B,,G,] [B,,B,]3 [B,,A,]2 | %8
[M:5/4] [E,G,]2- [E,G,]6 z2 |[M:1/4] [E,G,_D]2 | %10
[M:6/4] [A,,A,]2 [A,,A,]2 [A,,A,]2 [A,,B,]4 [C,A,]2 | [E,A,E]4 [E,G,E]2 [E,B,E]4 [E,G,E]2 | %12
 [B,,F,]2 B,,2 B,,2 z2 C2 B,,2 | [E,E]4 [E,E]2 [E,B,E]4 [G,B,_D]2 | %14
 [A,C]2 [A,CE]2 [G,B,E]2 [_G,=A,D]4 D,2 | G,4 F,2 E,4 D,2 | %16
 [C,C]2 [C,G,]2 [A,,F,]2 [B,,G,] [B,,B,]3 [B,,A,]2 |[M:5/4] [E,,E,]2- [E,,E,]6 z2 |] %18
V:3
 x12 | x12 | x12 | x12 | x12 | x12 | x12 | x12 |[M:5/4] x10 |[M:1/4] x2 |[M:6/4] x12 | x12 | %12
 z6 .B,,6 | x12 | x12 | x12 | x12 |[M:5/4] x10 |] %18

